X:1
T:Non è la vaga rosa
T:Non è la vaga rosa
T:Michael Andrew Angus Costa 
T:The pride of Flora's sweet domain, arietta
T:Costa. Non è la vaga rosa = The pride of Flora's sweet domain, arietta. Wm. Hall and Son, New York, monographic, 1848.  https://www.loc.gov/item/sm1848.441480/
T:Costa. Non è la vaga rosa = The pride of Flora's sweet domain, arietta. Wm. Hall and Son, New York, monographic, 1848.  https://www.loc.gov/item/sm1848.441480/
T:Costa. Non è la vaga rosa = The pride of Flora's sweet domain, arietta. Wm. Hall and Son, New York, monographic, 1848.  https://www.loc.gov/item/sm1848.441480/
C:Michael Andrew Angus Costa
Z:Costa. Non è la vaga rosa = The pride of Flora's sweet domain, arietta. Wm. Hall and Son, New York, monographic, 1848.  https://www.loc.gov/item/sm1848.441480/
%%score 1 2 { 3 | ( 4 5 ) }
L:1/8
Q:1/4=66
M:4/4
K:E
V:1 treble nm="Voce"
V:2 treble nm="Voce"
V:3 treble nm="Andantino\n\n\n\n\nEspressivo"
V:4 bass 
V:5 bass 
V:1
 z2 | z8 | z8 | z8 | z8 | z8 | z8 | z8 | z8 | z8 | z8 | z8 | z8 | z8 | z8 | e2 (E>F) (A>=G) (F>E) | %16
 z8 | z8 | z8 | z8 | z8 | G z e2- ec AF | E2 z E (GF) (EF) |!>(!!<(! =G4- G!>)!A/G/F E!<)! | B2 | %25
 z6 | z8 |] %27
V:2
 z2 | z8 | z8 | z8 | z4 z2 G2 | ^^F2 G2 A2 c2 | (B3/2c/4B/4 ^A/B/c/d/ e2) z e | %7
w: ||||Non|è la va\- ga|ro\- _ _ _ _ _ _ sa l'im\-|
w: ||||The|pride o' Flo\- ra's|swert * * do\- _ _ _ main, With|
 d7/2 G/ (AB/4A/4G/4A/4c) z/ B/ | G2 z2 z2 G2 | G3 G!<(! ^A^B (cd)!<)! | (d4 e) z (e3/2 e/) | %11
w: ma\- gi\- ne _ _ _ _ _ di|te non|è co\- sì _ vez\- *|zo\- sa co\- sì|
w: thee can\- not _ _ _ _ _ com\-|pare; Tho'|great its char ms, they *|ne'er re tain. The *|
 (d/e/4d/4c/d/) (3(eG c) (B/F/G/4F/4^E/4F/4d3/2)!>(! c/!>)! | B2 z2 z2 B2 | %13
w: bel\- _ _ _ _ la * co\- _ sì _ _ _ _ _ non|è Sul|
w: heart * * * * like * * * thou * * * * my *|fair: On|
 c3 c (d/e/4d/4c/d/e) f | (B^A/B/{/d} c/B/c/)d/ e2 z e | %15
w: tuo bel la\- _ _ _ _ bro a\-|mo\- _ _ _ _ _ _ re so\-|
w: thy sweet lips _ _ _ _ _ Love|takes * * his * * * seal, Nor|
 (e2 e/d/) (e/f/) (=g/d/e/)(^A/ B/)(F/G/) E/ | (F4 ^^F2-) F2 | G2 G3/2 G/ (A3/2B/4A/4G) A | %18
w: a\- _ _ ve * s'ap\- _ _ _ _ _ _ pog\-|giò _ _|E\- gli cer\- ca\- _ _ _ va un|
w: wish\- _ _ es * thence * * * * * * to|roam * He|feels * be\- low _ _ _ a|
 (^A4 B2) z B | ^B2 (6:4:6(B/d/c/B/c/d/) !turn!c2 (d e) | (E3 E) (F3/2G/4F/4E3/2) F/ | %21
w: co\- re un|co\- _ _ _ _ _ _ re e in|te lo ri\- _ _ _ tro\-|
w: true heart beat. And|there _ _ _ _ _ _ _ is *|found * love's _ _ _ _|
 G z !>!e2 (e3/2f/4e/4d) c | B2 z B (c>d) (ef) | =g4- (ga/g/f) e | B z | %25
w: vò sì _ _ _ _ e in|te lo ri\- _ tro\- _|vò _ _ _ _ e in|te|
w: home. Yes _ _ _ _ is|found, yes there is found loves|home _ _ _ _ is|found,|
 !>!e2 (d/B/A/c/) (B/G/) (A/F/) | E2 z2 !fermata!z4 |] %27
w: lo ri\- _ _ _ tro\- _ _ _|vò.|
w: is found * * * love's * * *|home.|
V:3
 [Gg]2 | [^^F^^f]2 [Gg]2 [Aa]2 [Ac']2 | [Bb] [ee']3 [bd'][ac'][gb][fa] | %3
 [eg]7/4[ac']/4 [gb]7/4[eg]/4 [Bf]7/4[gb]/4 [fa]7/4[Bf]/4 | [Ge] z (([Bg]2 [Ge]2))!p! ([EG]B,) | %5
 ([D^^F]B,) ([EG]B,) ([FA]B,) ([Ac]B,) | ([GB]B,) ([^^F^A][^F=A]) ([EG]B,) ([GB]B,) | %7
 ([FA]B,) ([FA]B,) ([FA]B,) ([DA]B,) | ([EG]B,[FA]B,) ([GB]B,[EG]B,) | %9
 ([^B,FG]G,)([B,FG]G,) ([FA]B,)([FA]B,) | ([^B,F]G,)([B,F]G,) ([CE]G,) ([E=G]c) | %11
 ([DF]A) ([EG]c) ([DF]A) ([CE]^A) | ([CE]F) BF [B,D]2 z2 | (A,CFC) (A,B,DB,) | %14
 (G,B,EB,) (G,B,EB,) | (=G,B,EB,) (G,B,EB,) | (DB,[DF]B,) ([D^^F]B,[DF]B,) | %17
 ([EG]B,)([EG]B,) ([FA]B,)([FA]B,) | ([^^F^A]C)([^FA]C) ([GB]B,)([EB]B,) | DF^BF [CEc]2 !>![CEG]2 | %20
 [B,^G]EB,E [DF]B,[DF]B, | ([DF]G,)([CE]G,) ([A,C]EAE) | ([G,B,]EGE) (A,DFD) | %23
 (=G,=G) ([=D=F]G,) ([=CE]G,) ([^A,E]G,) | ([B,E]^B,) | ([EG]^B,) [A,DF]4 | %26
 [G,E]2 [GBg]2 !fermata![EGe]4 |] %27
V:4
 EB, | DB, EB, FB, AB, | GE B,E A,CFC |{/B,,} B,EGB{/B,,} B,DFA | [GB] z [E,B,]2 [E,E]2 z2 | %5
{/E,,} E,8 |{/E,,} E,4- E,2 z2 |{/B,,,} B,,8 |{/E,,} E,8 | D,4 G,,4 | G,,4 C,2 (^A,2 | %11
 B,2) E,2 F,2 F,,2 | B,,2 z2 [B,,F,]2 z2 |{/B,,,} B,,8 |{/B,,,} B,,8 |{/B,,,} B,,8 |{/B,,,} B,,8 | %17
{/E,,} E,4- E,2 z2 | !>!E,6 G,2 | G,4 A,2 ^A,2 | [B,,B,]2 z2 B,,4 | ^B,,2 C,2 A,,4 | B,,4 B,,4 | %23
{/B,,,} B,,4 =C,2 ^C,2 | B,,2- | B,,2{/B,,,} B,,4 | [G,,E,]2 [E,B,E]2 !fermata![E,,B,,E,]4 |] %27
V:5
 E,2- | E, z E,2 E, z z2 | z2 G,2 x4 | x8 | x8 | x8 | x8 | x8 | x8 | x8 | x8 | x8 | x8 | x8 | x8 | %15
 x8 | F, z z2 z4 | x8 | x8 | x8 | x8 | x8 | x8 | x8 | x2 | x6 | x8 |] %27

